svg/icon/clam.svg

<svg height="32" viewBox="0 0 32 32" width="32" xmlns="http://www.w3.org/2000/svg" xmlns:xlink="http://www.w3.org/1999/xlink"><defs><linearGradient id="a" x1="50%" x2="50%" y1="0%" y2="100%"><stop offset="0" stop-color="#fff" stop-opacity=".5"/><stop offset="1" stop-opacity=".5"/></linearGradient><circle id="b" cx="16" cy="15" r="15"/><filter id="c" height="111.7%" width="111.7%" x="-5.8%" y="-4.2%"><feOffset dy=".5" in="SourceAlpha" result="shadowOffsetOuter1"/><feGaussianBlur in="shadowOffsetOuter1" result="shadowBlurOuter1" stdDeviation=".5"/><feComposite in="shadowBlurOuter1" in2="SourceAlpha" operator="out" result="shadowBlurOuter1"/><feColorMatrix in="shadowBlurOuter1" values="0 0 0 0 0   0 0 0 0 0   0 0 0 0 0  0 0 0 0.199473505 0"/></filter><path id="d" d="m17.8092907 6.87062425v-.08953104c.1777425-.07501485.5291697-.14611815 1.1324355.01590697.691299.18584212 1.2254966.88070736 1.4703666 1.25404314-.0004411.07362408-.0011468.15315894-.0021171.24077768-.0119965 1.33801109-.4377844 4.645966-1.1760992 7.1264976-.6446361 2.1669122-2.0521974 5.0503335-2.3374674 5.6253314-.1347844-.029467-.2765373-.0525017-.4265819-.0666702.1187302-.73146.6381086-3.9872609.9654546-6.9542155.3469286-3.1475814.3740089-6.27012883.3740089-7.15214005zm2.8992747 1.42371752.0000882-.0115608c.2609241-.00530233.8363157.04128859 1.4930365.46390991.6361679.4091482.963955 1.18745985 1.101121 1.60547422l-.0636874.2464277c-.1555136.6022919-1.3035621 3.7050208-2.5384972 6.0439542-1.0471367 1.9828955-2.7209147 4.17545-3.0857498 4.6451838-.1373315-.0653449-.2791722-.1210563-.4244649-.166719.3392543-.6869552 1.6968008-3.4914501 2.3299696-5.6198552.7456362-2.5059132 1.1760111-5.85202752 1.188184-7.20681483zm.2569547 8.48406643c1.176011-2.2270631 2.3647242-5.3521313 2.5603732-6.0970644.2589835.094138.8147925.3423042 1.1770695.8364634.3094394.4222736.4111452.9930123.4444002 1.3519188l-.1215529.2827617c-.2334027.5424017-1.6604584 3.0450118-3.0965114 4.827462-1.2441089 1.5443671-3.1133595 3.3763636-3.5615527 3.8102849-.1504767-.1350454-.3138008-.2554976-.4877111-.3596888.4212892-.5449224 2.0529913-2.6970576 3.0854852-4.6521376zm-9.9606333-8.25258955c-.013055-.10143955-.0246105-.19218752-.0352839-.2736347.1629233-.35551649.522995-.9471168 1.2123534-1.26212702.7491645-.34230414 1.3326714-.24860077 1.594213-.17297746.0007056.01999237.0010585.03807243.0016759.05858634.0208175.59516416.1769486 3.52439409.5606606 6.98150949.3512508 3.1629668.9183506 6.5265526 1.027907 7.1659608-.1495901.027193-.2971926.0641-.4418422.1104796-.2780368-.5901226-1.5156181-3.270491-2.3478761-5.9559009-.9279655-2.9944224-1.4596932-5.77475265-1.5718077-6.65189615zm3.0713717-1.66023595c-.0015878-.04763399-.0026463-.09187798-.003793-.13646966.2738027-.24642769.9116467-.72911304 1.708709-.72911304.7971506 0 1.4485788.48277228 1.7296148.72928689v.14125044c0 .87827351-.0269922 3.98752167-.3726858 7.12032607-.3312272 3.0032886-.860044 6.3057674-.9681009 6.9701225-.0261982-.0003477-.0514262-.0017385-.0778891-.0017385-.1436651.0000438-.2872302.0074713-.4301102.0222524-.1056752-.6155911-.674892-3.987087-1.0265839-7.1562254-.3827416-3.4482492-.5384317-6.36687447-.5591609-6.9596917zm2.0159432 14.3878133c1.6166182 0 2.3614605.9807562 2.5868361 1.3542658-1.2253202.8594981-2.2221774 1.3923382-2.5743985 1.3923382-.351339 0-1.2262023-.4401798-2.6030667-1.4351914.2197303-.354995.9626319-1.3114126 2.5906291-1.3114126zm9.2007954-7.9688717c.2458403.1597651.7511052.591861.703913 1.4213706-.0620996 1.0912357-1.935055 3.2553663-4.2867242 5.4440092-.8814256.8184972-1.8135655 1.582284-2.7910414 2.2869533-.0998462-.1559028-.213681-.3026668-.3401364-.4385283.4558674-.4417444 2.3322631-2.2809555 3.5840461-3.8352319 1.4390522-1.7865356 2.8726354-4.295578 3.1299429-4.8785729zm-18.47321699-.2110499c-.07277106-.1810758-.14170714-.3636254-.20676341-.5475302.00299913-.2810232.05645418-.6113319.23075644-.9286021.34084207-.6205458 1.20908962-.9042636 1.55328366-.9950116l.00158778.0054762.03731268.1298635c.24954509.8714935.833934 2.9124537 2.37195744 5.8623713 1.3729831 2.633169 2.8649611 4.4526485 3.2826337 4.9402885-.1116862.0767574-.2181481.1606443-.3187014.2511216-.4317862-.3668166-2.15258-1.8714597-3.90980439-3.9969094-1.48192206-1.7919248-2.50541859-3.3803621-3.0422625-4.7210678zm6.74098119 8.9271147c-.1108373.1208865-.2111617.250744-.2999128.3881997-.7189086-.5305801-1.5630749-1.202063-2.5317051-2.0303555-3.01112446-2.5748435-4.65993917-4.3652037-4.72521431-5.4964241-.04992666-.8632358.38856349-1.3505281.59947276-1.5334148.5623365 1.3370549 1.57895267 2.9007191 3.02700223 4.6519637 1.74902092 2.1153666 3.46513952 3.6236606 3.93035722 4.020031zm-4.8748179-11.4735342c-.03863583-.1332535-.06827427-.2429508-.09164983-.3350895.07700702-.36568654.26683418-.91417287.73196365-1.25230469.54778191-.39810894 1.11452888-.42470748 1.37809928-.4106259l.0042341.03363934c.1130848.8853143.6488702 3.68833155 1.5824811 6.70092095.8275829 2.6706329 2.0532559 5.3359635 2.3532569 5.9739809-.1020707.0430052-.2017685.0912858-.2986779.1446404-.3647469-.4226213-1.8783362-2.2434046-3.2721368-4.9166453-1.52452732-2.9237537-2.10300618-4.9448085-2.35016961-5.8077835z"/><filter id="e" height="119.4%" width="117.5%" x="-8.8%" y="-6.9%"><feOffset dy=".5" in="SourceAlpha" result="shadowOffsetOuter1"/><feGaussianBlur in="shadowOffsetOuter1" result="shadowBlurOuter1" stdDeviation=".5"/><feColorMatrix in="shadowBlurOuter1" values="0 0 0 0 0   0 0 0 0 0   0 0 0 0 0  0 0 0 0.204257246 0"/></filter></defs><g fill="none" fill-rule="evenodd"><use fill="#000" filter="url(#c)" xlink:href="#b"/><use fill="#20c5d3" xlink:href="#b"/><use fill="url(#a)" xlink:href="#b"/><circle cx="16" cy="15" r="14.5" stroke="#000" stroke-opacity=".097"/><g fill-rule="nonzero"><use fill="#000" filter="url(#e)" xlink:href="#d"/><use fill="#fff" fill-rule="evenodd" xlink:href="#d"/></g></g></svg>

<svg xmlns="http://www.w3.org/2000/svg" xmlns:xlink="http://www.w3.org/1999/xlink" width="32" height="32" viewBox="0 0 32 32">
  <defs>
    <linearGradient id="clam-c" x1="50%" x2="50%" y1="0%" y2="100%">
      <stop offset="0%" stop-color="#FFF" stop-opacity=".5"/>
      <stop offset="100%" stop-opacity=".5"/>
    </linearGradient>
    <circle id="clam-b" cx="16" cy="15" r="15"/>
    <filter id="clam-a" width="111.7%" height="111.7%" x="-5.8%" y="-4.2%" filterUnits="objectBoundingBox">
      <feOffset dy=".5" in="SourceAlpha" result="shadowOffsetOuter1"/>
      <feGaussianBlur in="shadowOffsetOuter1" result="shadowBlurOuter1" stdDeviation=".5"/>
      <feComposite in="shadowBlurOuter1" in2="SourceAlpha" operator="out" result="shadowBlurOuter1"/>
      <feColorMatrix in="shadowBlurOuter1" values="0 0 0 0 0   0 0 0 0 0   0 0 0 0 0  0 0 0 0.199473505 0"/>
    </filter>
    <path id="clam-e" d="M17.8092907,6.87062425 L17.8092907,6.78109321 C17.9870332,6.70607836 18.3384604,6.63497506 18.9417262,6.79700018 C19.6330252,6.9828423 20.1672228,7.67770754 20.4120928,8.05104332 C20.4116517,8.1246674 20.410946,8.20420226 20.4099757,8.291821 C20.3979792,9.62983209 19.9721913,12.937787 19.2338765,15.4183186 C18.5892404,17.5852308 17.1816791,20.4686521 16.8964091,21.04365 C16.7616247,21.014183 16.6198718,20.9911483 16.4698272,20.9769798 C16.5885574,20.2455198 17.1079358,16.9897189 17.4352818,14.0227643 C17.7822104,10.8751829 17.8092907,7.75263547 17.8092907,6.87062425 Z M20.7085654,8.29434177 L20.7086536,8.28278097 C20.9695777,8.27747864 21.5449693,8.32406956 22.2016901,8.74669088 C22.837858,9.15583908 23.1656451,9.93415073 23.3028111,10.3521651 L23.2391237,10.5985928 C23.0836101,11.2008847 21.9355616,14.3036136 20.7006265,16.642547 C19.6534898,18.6254425 17.9797118,20.817997 17.6148767,21.2877308 C17.4775452,21.2223859 17.3357045,21.1666745 17.1904118,21.1210118 C17.5296661,20.4340566 18.8872126,17.6295617 19.5203814,15.5011566 C20.2660176,12.9952434 20.6963925,9.64912908 20.7085654,8.29434177 Z M20.9655201,16.7784082 C22.1415311,14.5513451 23.3302443,11.4262769 23.5258933,10.6813438 C23.7848768,10.7754818 24.3406858,11.023648 24.7029628,11.5178072 C25.0124022,11.9400808 25.114108,12.5108195 25.147363,12.869726 L25.0258101,13.1524877 C24.7924074,13.6948894 23.3653517,16.1974995 21.9292987,17.9799497 C20.6851898,19.5243168 18.8159392,21.3563133 18.367746,21.7902346 C18.2172693,21.6551892 18.0539452,21.534737 17.8800349,21.4305458 C18.3013241,20.8856234 19.9330262,18.7334882 20.9655201,16.7784082 Z M11.0048868,8.52581865 C10.9918318,8.4243791 10.9802763,8.33363113 10.9696029,8.25218395 C11.1325262,7.89666746 11.4925979,7.30506715 12.1819563,6.99005693 C12.9311208,6.64775279 13.5146277,6.74145616 13.7761693,6.81707947 C13.7768749,6.83707184 13.7772278,6.8551519 13.7778452,6.87566581 C13.7986627,7.47082997 13.9547938,10.4000599 14.3385058,13.8571753 C14.6897566,17.0201421 15.2568564,20.3837279 15.3664128,21.0231361 C15.2168227,21.0503291 15.0692202,21.0872361 14.9245706,21.1336157 C14.6465338,20.5434931 13.4089525,17.8631247 12.5766945,15.1777148 C11.648729,12.1832924 11.1170013,9.40296215 11.0048868,8.52581865 Z M14.0762585,6.8655827 C14.0746707,6.81794871 14.0736122,6.77370472 14.0724655,6.72911304 C14.3462682,6.48268535 14.9841122,6 15.7811745,6 C16.5783251,6 17.2297533,6.48277228 17.5107893,6.72928689 L17.5107893,6.87053733 C17.5107893,7.74881084 17.4837971,10.858059 17.1381035,13.9908634 C16.8068763,16.994152 16.2780595,20.2966308 16.1700026,20.9609859 C16.1438044,20.9606382 16.1185764,20.9592474 16.0921135,20.9592474 C15.9484484,20.9592912 15.8048833,20.9667187 15.6620033,20.9814998 C15.5563281,20.3659087 14.9871113,16.9944128 14.6354194,13.8252744 C14.2526778,10.3770252 14.0969877,7.45839993 14.0762585,6.8655827 Z M16.0922017,21.253396 C17.7088199,21.253396 18.4536622,22.2341522 18.6790378,22.6076618 C17.4537176,23.4671599 16.4568604,24 16.1046393,24 C15.7533003,24 14.878437,23.5598202 13.5015726,22.5648086 C13.7213029,22.2098136 14.4642045,21.253396 16.0922017,21.253396 Z M25.2929971,13.2845243 C25.5388374,13.4442894 26.0441023,13.8763853 25.9969101,14.7058949 C25.9348105,15.7971306 24.0618551,17.9612612 21.7101859,20.1499041 C20.8287603,20.9684013 19.8966204,21.7321881 18.9191445,22.4368574 C18.8192983,22.2809546 18.7054635,22.1341906 18.5790081,21.9983291 C19.0348755,21.5565847 20.9112712,19.7173736 22.1630542,18.1630972 C23.6021064,16.3765616 25.0356896,13.8675192 25.2929971,13.2845243 Z M6.81978011,13.0734744 C6.74700905,12.8923986 6.67807297,12.709849 6.6130167,12.5259442 C6.61601583,12.244921 6.66947088,11.9146123 6.84377314,11.5973421 C7.18461521,10.9767963 8.05286276,10.6930785 8.3970568,10.6023305 L8.39864458,10.6078067 L8.43595726,10.7376702 C8.68550235,11.6091637 9.26989126,13.6501239 10.8079147,16.6000415 C12.1808978,19.2332105 13.6728758,21.05269 14.0905484,21.54033 C13.9788622,21.6170874 13.8724003,21.7009743 13.771847,21.7914516 C13.3400608,21.424635 11.619267,19.9199919 9.86204261,17.7945422 C8.38012055,16.0026174 7.35662402,14.4141801 6.81978011,13.0734744 Z M13.5607613,22.0005891 C13.449924,22.1214756 13.3495996,22.2513331 13.2608485,22.3887888 C12.5419399,21.8582087 11.6977736,21.1867258 10.7291434,20.3584333 C7.71801894,17.7835898 6.06920423,15.9932296 6.00392909,14.8620092 C5.95400243,13.9987734 6.39249258,13.5114811 6.60340185,13.3285944 C7.16573835,14.6656493 8.18235452,16.2293135 9.63040408,17.9805581 C11.379425,20.0959247 13.0955436,21.6042187 13.5607613,22.0005891 Z M8.6859434,10.5270549 C8.64730757,10.3938014 8.61766913,10.2841041 8.59429357,10.1919654 C8.67130059,9.82627886 8.86112775,9.27779253 9.32625722,8.93966071 C9.87403913,8.54155177 10.4407861,8.51495323 10.7043565,8.52903481 L10.7085906,8.56267415 C10.8216754,9.44798845 11.3574608,12.2510057 12.2910717,15.2635951 C13.1186546,17.934228 14.3443276,20.5995586 14.6443286,21.237576 C14.5422579,21.2805812 14.4425601,21.3288618 14.3456507,21.3822164 C13.9809038,20.9595951 12.4673145,19.1388118 11.0735139,16.4655711 C9.54898658,13.5418174 8.97050772,11.5207626 8.72334429,10.6577876 L8.6859434,10.5270549 Z"/>
    <filter id="clam-d" width="117.5%" height="119.4%" x="-8.8%" y="-6.9%" filterUnits="objectBoundingBox">
      <feOffset dy=".5" in="SourceAlpha" result="shadowOffsetOuter1"/>
      <feGaussianBlur in="shadowOffsetOuter1" result="shadowBlurOuter1" stdDeviation=".5"/>
      <feColorMatrix in="shadowBlurOuter1" values="0 0 0 0 0   0 0 0 0 0   0 0 0 0 0  0 0 0 0.204257246 0"/>
    </filter>
  </defs>
  <g fill="none" fill-rule="evenodd">
    <use fill="#000" filter="url(#clam-a)" xlink:href="#clam-b"/>
    <use fill="#20C5D3" xlink:href="#clam-b"/>
    <use fill="url(#clam-c)" style="mix-blend-mode:soft-light" xlink:href="#clam-b"/>
    <circle cx="16" cy="15" r="14.5" stroke="#000" stroke-opacity=".097"/>
    <g fill-rule="nonzero">
      <use fill="#000" filter="url(#clam-d)" xlink:href="#clam-e"/>
      <use fill="#FFF" fill-rule="evenodd" xlink:href="#clam-e"/>
    </g>
  </g>
</svg>
